icons/medium-fill.svg

<svg xmlns="http://www.w3.org/2000/svg" width="24" height="24" fill="none"><g clip-path="url(#a)"><g><path fill="#121212" d="M4 3H20C20.2652 3 20.5196 3.10536 20.7071 3.29289C20.8946 3.48043 21 3.73478 21 4V20C21 20.2652 20.8946 20.5196 20.7071 20.7071C20.5196 20.8946 20.2652 21 20 21H4C3.73478 21 3.48043 20.8946 3.29289 20.7071C3.10536 20.5196 3 20.2652 3 20V4C3 3.73478 3.10536 3.48043 3.29289 3.29289C3.48043 3.10536 3.73478 3 4 3ZM17.3 15.94C17.2 15.89 17.15 15.74 17.15 15.639V8.006C17.15 7.906 17.2 7.756 17.3 7.655L18.255 6.55V6.5H14.84L12.28 12.978L9.366 6.5H5.852V6.55L6.755 7.806C6.956 8.006 7.006 8.308 7.006 8.559V14.082C7.056 14.384 7.006 14.735 6.856 15.036L5.5 16.894V16.944H9.116V16.894L7.76 15.087C7.61 14.785 7.559 14.484 7.61 14.133V9.11C7.66 9.21 7.71 9.21 7.76 9.411L11.174 17.044H11.224L14.54 8.76C14.49 9.06 14.49 9.412 14.49 9.664V15.589C14.49 15.739 14.44 15.839 14.34 15.94L13.335 16.894V16.944H18.256V16.894L17.302 15.94H17.3Z"/></g></g><defs><clipPath id="a"><rect width="24" height="24" fill="white"/></clipPath></defs></svg>

<svg width="24" height="24" fill="none" xmlns="http://www.w3.org/2000/svg"><g clip-path="url(#a)"><path d="M4 3h16a1 1 0 0 1 1 1v16a1 1 0 0 1-1 1H4a1 1 0 0 1-1-1V4a1 1 0 0 1 1-1Zm13.3 12.94c-.1-.05-.15-.2-.15-.301V8.006c0-.1.05-.25.15-.351l.955-1.105V6.5H14.84l-2.56 6.478L9.366 6.5H5.852v.05l.903 1.256c.201.2.251.502.251.753v5.523c.05.302 0 .653-.15.954L5.5 16.894v.05h3.616v-.05L7.76 15.087a1.546 1.546 0 0 1-.15-.954V9.11c.05.1.1.1.15.301l3.414 7.633h.05L14.54 8.76c-.05.3-.05.652-.05.904v5.925c0 .15-.05.25-.15.351l-1.005.954v.05h4.921v-.05l-.954-.954H17.3Z" /></g><defs><clipPath id="a"><path fill="#fff" d="M0 0h24v24H0z"/></clipPath></defs></svg>
